src/catppuccin-macchiato-mauve-cursors/no-drop_24.svg

<?xml version="1.0" encoding="UTF-8" standalone="no"?>
<svg
   id="svg5327"
   width="24"
   height="24"
   version="1.1"
   sodipodi:docname="no-drop_24.svg"
   inkscape:version="1.1.2 (0a00cf5339, 2022-02-04)"
   xmlns:inkscape="http://www.inkscape.org/namespaces/inkscape"
   xmlns:sodipodi="http://sodipodi.sourceforge.net/DTD/sodipodi-0.dtd"
   xmlns:xlink="http://www.w3.org/1999/xlink"
   xmlns="http://www.w3.org/2000/svg"
   xmlns:svg="http://www.w3.org/2000/svg">
  <sodipodi:namedview
     id="namedview23"
     pagecolor="#ffffff"
     bordercolor="#666666"
     borderopacity="1.0"
     inkscape:pageshadow="2"
     inkscape:pageopacity="0.0"
     inkscape:pagecheckerboard="0"
     showgrid="false"
     inkscape:snap-global="true"
     inkscape:zoom="24.480037"
     inkscape:cx="15.400304"
     inkscape:cy="11.356192"
     inkscape:window-width="1896"
     inkscape:window-height="1020"
     inkscape:window-x="9"
     inkscape:window-y="45"
     inkscape:window-maximized="1"
     inkscape:current-layer="svg5327"
     inkscape:snap-bbox="true"
     inkscape:snap-bbox-midpoints="true">
    <inkscape:grid
       type="xygrid"
       id="grid1390" />
  </sodipodi:namedview>
  <defs
     id="defs5329">
    <linearGradient
       id="linearGradient830">
      <stop
         id="stop826"
         style="stop-color:#ffffff;stop-opacity:1"
         offset="0" />
      <stop
         id="stop828"
         style="stop-color:#ffffff;stop-opacity:0"
         offset="1" />
    </linearGradient>
    <linearGradient
       id="linearGradient832"
       x1="21"
       x2="25"
       y1="16"
       y2="28"
       gradientUnits="userSpaceOnUse"
       xlink:href="#linearGradient830"
       gradientTransform="matrix(0.69230767,0,0,0.69230767,1.9230779,0.9230769)" />
    <filter
       id="filter836"
       style="color-interpolation-filters:sRGB"
       width="1.144"
       height="1.144"
       x="-0.071999998"
       y="-0.071999998">
      <feGaussianBlur
         id="feGaussianBlur838"
         stdDeviation=".45" />
    </filter>
    <filter
       id="filter839"
       style="color-interpolation-filters:sRGB"
       width="1.136"
       height="1.153"
       x="-0.067999999"
       y="-0.076499999">
      <feGaussianBlur
         id="feGaussianBlur841"
         stdDeviation=".255" />
    </filter>
    <filter
       id="filter914"
       style="color-interpolation-filters:sRGB"
       width="1.171"
       height="1.1243636"
       x="-0.085499998"
       y="-0.062181813">
      <feGaussianBlur
         id="feGaussianBlur916"
         stdDeviation=".57" />
    </filter>
    <filter
       inkscape:collect="always"
       style="color-interpolation-filters:sRGB"
       id="filter1480"
       x="-0.023520193"
       y="-0.023519893"
       width="1.0470404"
       height="1.0470398">
      <feGaussianBlur
         inkscape:collect="always"
         stdDeviation="0.21560181"
         id="feGaussianBlur1482" />
    </filter>
    <linearGradient
       id="linearGradient832-3"
       x1="21"
       x2="25"
       y1="16"
       y2="28"
       gradientUnits="userSpaceOnUse"
       xlink:href="#linearGradient830"
       gradientTransform="matrix(0.69230769,0,0,0.69230769,1.923077,0.92307698)" />
    <filter
       inkscape:collect="always"
       style="color-interpolation-filters:sRGB"
       id="filter1443"
       x="-0.069121303"
       y="-0.069118696"
       width="1.1382426"
       height="1.1382374">
      <feGaussianBlur
         inkscape:collect="always"
         stdDeviation="0.20158857"
         id="feGaussianBlur1445" />
    </filter>
  </defs>
  <path
     id="path1439"
     style="color:#000000;fill:#000000;fill-opacity:1;stroke-linecap:round;stroke-linejoin:round;-inkscape-stroke:none;opacity:0.1;filter:url(#filter1480)"
     d="m 2.4863332,0.5 a 1.0001,1.0001 0 0 0 -0.375,0.0839844 A 1.0001,1.0001 0 0 0 1.5097707,1.5 l -0.00977,15 a 1.0001,1.0001 0 0 0 1.9492188,0.316406 C 4.1110667,14.830878 5.6751555,13.041873 7.1660207,12.246094 8.1069794,11.767936 9.0955806,11.506175 10.005864,11.5 c 0.897165,-0.0061 1.775602,0.233292 2.523438,0.632812 a 1.0001,1.0001 0 0 0 1.152344,-1.615234 L 3.1914113,0.76757812 A 1.0001,1.0001 0 0 0 2.4863332,0.5 Z m 15.5136718,11 a 5.5,5.5 0 0 0 -5.5,5.5 5.5,5.5 0 0 0 5.5,5.5 5.5,5.5 0 0 0 5.5,-5.5 5.5,5.5 0 0 0 -5.5,-5.5 z" />
  <path
     id="path1725"
     style="color:#000000;fill:#24273A;stroke-linecap:round;stroke-linejoin:round;-inkscape-stroke:none;fill-opacity:1"
     d="M 1.9863281 0 A 1.0001 1.0001 0 0 0 1.6113281 0.083984375 A 1.0001 1.0001 0 0 0 1.0097656 1 L 1 16 A 1.0001 1.0001 0 0 0 2.9492188 16.316406 C 3.6110617 14.330878 5.1751504 12.541873 6.6660156 11.746094 C 7.6069743 11.267936 8.5955755 11.006175 9.5058594 11 C 10.403024 10.9939 11.281461 11.233291 12.029297 11.632812 A 1.0001 1.0001 0 0 0 13.181641 10.017578 L 2.6914062 0.26757812 A 1.0001 1.0001 0 0 0 1.9863281 0 z " />
  <path
     id="path840"
     style="fill:#24273A;fill-opacity:1;stroke:none;stroke-width:1.99999;stroke-linecap:round;stroke-linejoin:round;stroke-miterlimit:4;stroke-dasharray:none;stroke-opacity:1"
     d="M 23,16.5 A 5.5,5.5 0 0 1 17.5,22 5.5,5.5 0 0 1 12,16.5 5.5,5.5 0 0 1 17.5,11 5.5,5.5 0 0 1 23,16.5 Z" />
  <path
     id="path823"
     style="fill:#C6A0F6;fill-opacity:1;stroke:none;stroke-width:1.25944;stroke-linecap:round;stroke-linejoin:round;stroke-miterlimit:4;stroke-dasharray:none;stroke-opacity:1"
     d="M 2.0105448,1.0005164 1.9999998,16.000516 c 0.75,-2.25 2.4349812,-4.20291 4.202126,-5.142865 1.064836,-0.542978 2.2025312,-0.849705 3.297874,-0.857135 1.0769232,-0.0073 2.1128932,0.276075 3.0000002,0.75 z" />
  <path
     id="path836"
     style="fill:#C6A0F6;fill-opacity:1;stroke:none;stroke-width:1.63637;stroke-linecap:round;stroke-linejoin:round;stroke-miterlimit:4;stroke-dasharray:none;stroke-opacity:1"
     d="M 22,16.5 A 4.5,4.5 0 0 1 17.5,21 4.5,4.5 0 0 1 13,16.5 4.5,4.5 0 0 1 17.5,12 4.5,4.5 0 0 1 22,16.5 Z" />
  <path
     id="path824"
     style="opacity:0.2;fill:#C6A0F6;fill-opacity:1;stroke:none;stroke-width:1.63637;stroke-linecap:round;stroke-linejoin:round;stroke-miterlimit:4;stroke-dasharray:none;stroke-opacity:1"
     d="M 22,16.5 A 4.5,4.5 0 0 1 17.5,21 4.5,4.5 0 0 1 13,16.5 4.5,4.5 0 0 1 17.5,12 4.5,4.5 0 0 1 22,16.5 Z" />
  <path
     id="path1387"
     style="opacity:0.2;fill:#000000;fill-opacity:1;stroke:none;stroke-width:1.92478;stroke-linecap:round;stroke-linejoin:round;stroke-miterlimit:4;stroke-dasharray:none;stroke-opacity:1;filter:url(#filter1443)"
     d="m 17.799735,13.300265 c -0.895728,0 -1.791192,0.341973 -2.474609,1.025391 -1.366835,1.366834 -1.366835,3.582383 0,4.949218 1.366835,1.366835 3.582384,1.366835 4.949218,0 1.366836,-1.366835 1.366836,-3.582384 0,-4.949218 -0.683417,-0.683418 -1.578881,-1.025391 -2.474609,-1.025391 z m -0.07031,1 c 0.501459,-0.01387 1.006956,0.124478 1.447265,0.416016 l -3.460937,3.460937 c -0.65135,-0.984292 -0.528471,-2.301426 0.314451,-3.146484 0.467424,-0.466382 1.07916,-0.713314 1.699219,-0.730469 z m 2.154296,1.123047 c 0.651349,0.984292 0.528468,2.301426 -0.314453,3.146484 -0.845292,0.843407 -2.161545,0.965856 -3.146484,0.314453 z" />
  <path
     id="path825"
     style="fill:#24273A;fill-opacity:1;stroke:none;stroke-width:1.92478;stroke-linecap:round;stroke-linejoin:round;stroke-miterlimit:4;stroke-dasharray:none;stroke-opacity:1;opacity:1"
     d="M 17.5 13 C 16.604272 13 15.708808 13.341973 15.025391 14.025391 C 13.658556 15.392225 13.658556 17.607774 15.025391 18.974609 C 16.392226 20.341444 18.607775 20.341444 19.974609 18.974609 C 21.341445 17.607774 21.341445 15.392225 19.974609 14.025391 C 19.291192 13.341973 18.395728 13 17.5 13 z M 17.429688 14 C 17.931147 13.986126 18.436644 14.124478 18.876953 14.416016 L 15.416016 17.876953 C 14.764668 16.892661 14.887547 15.575527 15.730469 14.730469 C 16.197893 14.264087 16.809629 14.017155 17.429688 14 z M 19.583984 15.123047 C 20.235333 16.107339 20.112452 17.424473 19.269531 18.269531 C 18.424239 19.112938 17.107986 19.235387 16.123047 18.583984 L 19.583984 15.123047 z " />
</svg>

<svg xmlns="http://www.w3.org/2000/svg" width="24" height="24">
    <defs>
        <filter id="a" width="1.047" height="1.047" x="-.024" y="-.024" style="color-interpolation-filters:sRGB">
            <feGaussianBlur stdDeviation=".216"/>
        </filter>
        <filter id="c" width="1.138" height="1.138" x="-.069" y="-.069" style="color-interpolation-filters:sRGB">
            <feGaussianBlur stdDeviation=".202"/>
        </filter>
    </defs>
    <path d="M2.486.5a1 1 0 0 0-.375.084 1 1 0 0 0-.601.916l-.01 15a1 1 0 0 0 1.95.316c.661-1.985 2.225-3.774 3.716-4.57.941-.478 1.93-.74 2.84-.746a5.3 5.3 0 0 1 2.523.633 1 1 0 0 0 1.153-1.615L3.192.768A1 1 0 0 0 2.485.5M18 11.5a5.5 5.5 0 0 0-5.5 5.5 5.5 5.5 0 0 0 5.5 5.5 5.5 5.5 0 0 0 5.5-5.5 5.5 5.5 0 0 0-5.5-5.5" style="color:#000;fill:#000;fill-opacity:1;stroke-linecap:round;stroke-linejoin:round;-inkscape-stroke:none;opacity:.1;filter:url(#a)"/>
    <path d="M1.986 0a1 1 0 0 0-.375.084A1 1 0 0 0 1.01 1L1 16a1 1 0 0 0 1.95.316c.661-1.985 2.225-3.774 3.716-4.57.941-.478 1.93-.74 2.84-.746a5.3 5.3 0 0 1 2.523.633 1 1 0 0 0 1.153-1.615L2.692.268A1 1 0 0 0 1.985 0" style="color:#000;fill:#24273a;stroke-linecap:round;stroke-linejoin:round;-inkscape-stroke:none;fill-opacity:1"/>
    <path d="M23 16.5a5.5 5.5 0 0 1-5.5 5.5 5.5 5.5 0 0 1-5.5-5.5 5.5 5.5 0 0 1 5.5-5.5 5.5 5.5 0 0 1 5.5 5.5" style="fill:#24273a;fill-opacity:1;stroke:none;stroke-width:1.99999;stroke-linecap:round;stroke-linejoin:round;stroke-miterlimit:4;stroke-dasharray:none;stroke-opacity:1"/>
    <path d="M2.01 1 2 16c.75-2.25 2.435-4.202 4.202-5.142 1.065-.543 2.203-.85 3.298-.857a6.3 6.3 0 0 1 3 .75z" style="fill:#c6a0f6;fill-opacity:1;stroke:none;stroke-width:1.25944;stroke-linecap:round;stroke-linejoin:round;stroke-miterlimit:4;stroke-dasharray:none;stroke-opacity:1"/>
    <path d="M22 16.5a4.5 4.5 0 0 1-4.5 4.5 4.5 4.5 0 0 1-4.5-4.5 4.5 4.5 0 0 1 4.5-4.5 4.5 4.5 0 0 1 4.5 4.5" style="fill:#c6a0f6;fill-opacity:1;stroke:none;stroke-width:1.63637;stroke-linecap:round;stroke-linejoin:round;stroke-miterlimit:4;stroke-dasharray:none;stroke-opacity:1"/>
    <path d="M22 16.5a4.5 4.5 0 0 1-4.5 4.5 4.5 4.5 0 0 1-4.5-4.5 4.5 4.5 0 0 1 4.5-4.5 4.5 4.5 0 0 1 4.5 4.5" style="opacity:.2;fill:#c6a0f6;fill-opacity:1;stroke:none;stroke-width:1.63637;stroke-linecap:round;stroke-linejoin:round;stroke-miterlimit:4;stroke-dasharray:none;stroke-opacity:1"/>
    <path d="M17.8 13.3a3.5 3.5 0 1 0 0 7 3.5 3.5 0 0 0 0-7m-.07 1a2.5 2.5 0 0 1 1.447.416l-3.461 3.461a2.5 2.5 0 0 1 .314-3.146 2.5 2.5 0 0 1 1.7-.73m2.154 1.123a2.5 2.5 0 0 1-.315 3.147 2.5 2.5 0 0 1-3.146.314z" style="opacity:.2;fill:#000;fill-opacity:1;stroke:none;stroke-width:1.92478;stroke-linecap:round;stroke-linejoin:round;stroke-miterlimit:4;stroke-dasharray:none;stroke-opacity:1;filter:url(#c)"/>
    <path d="M17.5 13a3.5 3.5 0 1 0 0 7 3.5 3.5 0 0 0 0-7m-.07 1a2.5 2.5 0 0 1 1.447.416l-3.461 3.461a2.5 2.5 0 0 1 .314-3.147 2.5 2.5 0 0 1 1.7-.73m2.154 1.123a2.5 2.5 0 0 1-.314 3.147 2.5 2.5 0 0 1-3.147.314z" style="fill:#24273a;fill-opacity:1;stroke:none;stroke-width:1.92478;stroke-linecap:round;stroke-linejoin:round;stroke-miterlimit:4;stroke-dasharray:none;stroke-opacity:1;opacity:1"/>
</svg>
